X: 1
T: Polkka Kuopiosta
O: Trad
M: 2/4
L: 1/16
Z: John Chambers <jc@trillian.mit.edu>
K: Am
|: "Am"e3d e3d | cdcB A2c2 | "E7"BcBA ^G2E2 |1,3"Am"A^GAB c2d2 :|2,4 "Am"A2A2 A4 :|
|: "Am"E2A2 A2B2 | cdcB A2c2 | "E7"BcBA ^G2E2 |1,3"Am"A^GAB c2A2 :|2,4 "Am"A2A2 A4 :|
